assets/icons/clipboard.svg

<svg role="img" version="1.1" xmlns="http://www.w3.org/2000/svg" width="24" height="24" viewBox="0 0 16 16"><path d="M12.667 2h-2c0-0.368-0.298-0.667-0.667-0.667v0h-4c-0.368 0-0.667 0.298-0.667 0.667v0h-2c-0.368 0-0.667 0.298-0.667 0.667v0 11.333c0 0.368 0.298 0.667 0.667 0.667v0h9.333c0.368 0 0.667-0.298 0.667-0.667v0-11.333c0-0.368-0.298-0.667-0.667-0.667v0zM12 13.333h-8v-10h1.333v0.667c0 0.368 0.298 0.667 0.667 0.667v0h4c0.368 0 0.667-0.298 0.667-0.667v0-0.667h1.333v10z"></path></svg>

<svg xmlns="http://www.w3.org/2000/svg" width="16" height="16"><path d="M12.667 2h-2A.667.667 0 0 0 10 1.333H6A.667.667 0 0 0 5.333 2h-2a.667.667 0 0 0-.667.667V14c0 .368.298.667.667.667h9.333a.667.667 0 0 0 .667-.667V2.667A.667.667 0 0 0 12.666 2zM12 13.333H4v-10h1.333V4c0 .368.298.667.667.667h4A.667.667 0 0 0 10.667 4v-.667H12v10z"/></svg>
